src/assets/svg/business.svg

<svg width="61" height="61" viewBox="0 0 61 61" fill="none" xmlns="http://www.w3.org/2000/svg">
<path d="M60.9688 26.4375V12.2188C60.9688 9.74773 59.1924 7.68805 56.8504 7.23812C56.3923 3.18883 52.9504 0.03125 48.7812 0.03125C44.6456 0.03125 41.2291 3.13906 40.7263 7.14062H36.5227C36.0209 3.13906 32.6044 0.03125 28.4688 0.03125C24.3331 0.03125 20.9166 3.13906 20.4138 7.14062H16.2102C15.7084 3.13906 12.2919 0.03125 8.15625 0.03125C3.67633 0.03125 0.03125 3.67633 0.03125 8.15625C0.03125 12.6362 3.67633 16.2812 8.15625 16.2812C12.2919 16.2812 15.7084 13.1734 16.2112 9.17188H20.4148C20.9176 13.1734 24.3341 16.2812 28.4698 16.2812C32.6054 16.2812 36.022 13.1734 36.5247 9.17188H40.7284C41.2311 13.1734 44.6477 16.2812 48.7833 16.2812C52.8641 16.2812 56.242 13.2537 56.8138 9.3293C58.0397 9.72234 58.9375 10.8619 58.9375 12.2188V26.4375C58.9375 28.1173 57.5705 29.4844 55.8906 29.4844H39.0455L41.3743 27.1555L39.9382 25.7195L36.1733 29.4844H30.9205L33.2493 27.1555L31.8132 25.7195L28.0483 29.4844H22.7955L25.1243 27.1555L23.6882 25.7195L19.9233 29.4844H5.10938C2.3093 29.4844 0.03125 31.7624 0.03125 34.5625V48.7812C0.03125 51.2523 1.80758 53.312 4.14961 53.7619C4.60766 57.8112 8.04961 60.9688 12.2188 60.9688C16.3544 60.9688 19.7709 57.8609 20.2737 53.8594H24.4773C24.9801 57.8609 28.3966 60.9688 32.5323 60.9688C36.6679 60.9688 40.0845 57.8609 40.5872 53.8594H44.7909C45.2936 57.8609 48.7102 60.9688 52.8458 60.9688C57.3257 60.9688 60.9708 57.3237 60.9708 52.8438C60.9708 48.3638 57.3257 44.7188 52.8458 44.7188C48.7102 44.7188 45.2936 47.8266 44.7909 51.8281H40.5872C40.0845 47.8266 36.6679 44.7188 32.5323 44.7188C28.3966 44.7188 24.9801 47.8266 24.4773 51.8281H20.2737C19.7709 47.8266 16.3544 44.7188 12.2188 44.7188C8.13797 44.7188 4.76 47.7463 4.1882 51.6707C2.96031 51.2777 2.0625 50.1381 2.0625 48.7812V34.5625C2.0625 32.8827 3.42953 31.5156 5.10938 31.5156H19.9233L23.6882 35.2805L25.1243 33.8445L22.7955 31.5156H28.0483L31.8132 35.2805L33.2493 33.8445L30.9205 31.5156H36.1733L39.9382 35.2805L41.3743 33.8445L39.0455 31.5156H55.8906C58.6907 31.5156 60.9688 29.2376 60.9688 26.4375ZM8.15625 14.25C4.79555 14.25 2.0625 11.517 2.0625 8.15625C2.0625 4.79555 4.79555 2.0625 8.15625 2.0625C11.517 2.0625 14.25 4.79555 14.25 8.15625C14.25 11.517 11.517 14.25 8.15625 14.25ZM28.4688 14.25C25.108 14.25 22.375 11.517 22.375 8.15625C22.375 4.79555 25.108 2.0625 28.4688 2.0625C31.8295 2.0625 34.5625 4.79555 34.5625 8.15625C34.5625 11.517 31.8295 14.25 28.4688 14.25ZM48.7812 14.25C45.4205 14.25 42.6875 11.517 42.6875 8.15625C42.6875 4.79555 45.4205 2.0625 48.7812 2.0625C52.142 2.0625 54.875 4.79555 54.875 8.15625C54.875 11.517 52.142 14.25 48.7812 14.25ZM52.8438 46.75C56.2045 46.75 58.9375 49.483 58.9375 52.8438C58.9375 56.2045 56.2045 58.9375 52.8438 58.9375C49.483 58.9375 46.75 56.2045 46.75 52.8438C46.75 49.483 49.483 46.75 52.8438 46.75ZM32.5312 46.75C35.892 46.75 38.625 49.483 38.625 52.8438C38.625 56.2045 35.892 58.9375 32.5312 58.9375C29.1705 58.9375 26.4375 56.2045 26.4375 52.8438C26.4375 49.483 29.1705 46.75 32.5312 46.75ZM12.2188 46.75C15.5795 46.75 18.3125 49.483 18.3125 52.8438C18.3125 56.2045 15.5795 58.9375 12.2188 58.9375C8.85805 58.9375 6.125 56.2045 6.125 52.8438C6.125 49.483 8.85805 46.75 12.2188 46.75Z" fill="#E10303"/>
</svg>

<svg width="61" height="61" fill="none" xmlns="http://www.w3.org/2000/svg">
  <path
    d="M60.969 26.438v-14.22a5.081 5.081 0 00-4.119-4.98c-.458-4.05-3.9-7.207-8.069-7.207-4.135 0-7.552 3.108-8.055 7.11h-4.203C36.02 3.139 32.604.03 28.469.03c-4.136 0-7.552 3.108-8.055 7.11H16.21C15.708 3.139 12.292.03 8.156.03 3.676.031.031 3.676.031 8.156s3.645 8.125 8.125 8.125c4.136 0 7.552-3.108 8.055-7.11h4.204c.503 4.002 3.92 7.11 8.055 7.11s7.552-3.108 8.055-7.11h4.203c.503 4.002 3.92 7.11 8.055 7.11 4.081 0 7.459-3.027 8.03-6.952a3.042 3.042 0 012.124 2.89v14.219a3.05 3.05 0 01-3.046 3.046H39.045l2.33-2.329-1.437-1.436-3.765 3.765H30.92l2.33-2.329-1.437-1.436-3.765 3.765h-5.252l2.328-2.329-1.436-1.436-3.765 3.765H5.11a5.084 5.084 0 00-5.078 5.078v14.22a5.081 5.081 0 004.119 4.98c.458 4.05 3.9 7.207 8.069 7.207 4.135 0 7.552-3.108 8.055-7.11h4.203c.503 4.002 3.92 7.11 8.055 7.11 4.136 0 7.553-3.108 8.055-7.11h4.204c.503 4.002 3.92 7.11 8.055 7.11 4.48 0 8.125-3.645 8.125-8.125s-3.645-8.125-8.125-8.125c-4.136 0-7.552 3.108-8.055 7.11h-4.204c-.503-4.002-3.92-7.11-8.055-7.11s-7.552 3.108-8.055 7.11h-4.203c-.503-4.002-3.92-7.11-8.055-7.11-4.081 0-7.459 3.027-8.03 6.952a3.041 3.041 0 01-2.127-2.89V34.563a3.05 3.05 0 013.047-3.047h14.814l3.765 3.765 1.436-1.437-2.328-2.328h5.252l3.765 3.765 1.436-1.437-2.329-2.328h5.253l3.765 3.765 1.436-1.437-2.329-2.328h16.846c2.8 0 5.078-2.278 5.078-5.078zM8.156 14.25a6.1 6.1 0 01-6.094-6.094 6.1 6.1 0 016.094-6.094 6.1 6.1 0 016.094 6.094 6.1 6.1 0 01-6.094 6.094zm20.313 0a6.1 6.1 0 01-6.094-6.094 6.1 6.1 0 016.094-6.094 6.1 6.1 0 016.093 6.094 6.1 6.1 0 01-6.093 6.094zm20.312 0a6.1 6.1 0 01-6.093-6.094 6.1 6.1 0 016.093-6.094 6.1 6.1 0 016.094 6.094 6.1 6.1 0 01-6.094 6.094zm4.063 32.5a6.1 6.1 0 016.093 6.094 6.1 6.1 0 01-6.093 6.093 6.1 6.1 0 01-6.094-6.093 6.1 6.1 0 016.094-6.094zm-20.313 0a6.1 6.1 0 016.094 6.094 6.1 6.1 0 01-6.094 6.093 6.1 6.1 0 01-6.093-6.093 6.1 6.1 0 016.093-6.094zm-20.312 0a6.1 6.1 0 016.094 6.094 6.1 6.1 0 01-6.094 6.093 6.1 6.1 0 01-6.094-6.093 6.1 6.1 0 016.094-6.094z"
    fill="#E10303" /></svg>
